static/assets/images/networks/gnosis.svg

<svg xmlns="http://www.w3.org/2000/svg" fill="none" viewBox="0 0 512 512"><path fill="#04795C" d="M256 512c141.385 0 256-114.615 256-256S397.385 0 256 0 0 114.615 0 256s114.615 256 256 256"/><path fill="#fff" d="M184.418 280.051c10.393 0 19.996-3.462 27.725-9.456l-63.442-63.429a44.38 44.38 0 0 0-9.472 27.725c-.131 24.915 20.128 45.167 45.182 45.167zm188.74-45.306c0-10.393-3.462-19.981-9.463-27.71l-63.443 63.421a44.43 44.43 0 0 0 27.725 9.463c24.922.132 45.181-20.12 45.181-45.167z"/><path fill="#fff" d="m405.151 165.864-28.128 28.113a63.53 63.53 0 0 1 14.931 41.039c0 35.308-28.655 63.955-63.977 63.955-15.597 0-29.862-5.592-41.061-14.924l-30.784 30.778-30.792-30.778a63.58 63.58 0 0 1-41.054 14.931c-35.322 0-63.977-28.654-63.977-63.962 0-15.59 5.6-29.848 14.932-41.039l-28.128-28.113a173.2 173.2 0 0 0-25.193 90.202c0 96.204 77.972 174.014 174.08 174.014 96.101 0 174.072-77.95 174.072-174.014a169.86 169.86 0 0 0-24.921-90.202"/><path fill="#fff" d="M382.088 135.885A173.54 173.54 0 0 0 256.124 81.92c-49.58 0-94.227 20.787-125.956 53.965a209 209 0 0 0-12.259 14.257L256 288.183l138.084-138.172a118 118 0 0 0-11.996-14.126m-125.964-31.312c40.798 0 78.652 15.722 107.044 44.369L256.124 255.934 149.096 148.942c28.523-28.647 66.246-44.369 107.036-44.369z"/></svg>

<svg width="512" height="512" viewBox="0 0 512 512" fill="none" xmlns="http://www.w3.org/2000/svg">
<path d="M256 512C397.385 512 512 397.385 512 256C512 114.615 397.385 0 256 0C114.615 0 0 114.615 0 256C0 397.385 114.615 512 256 512Z" fill="#04795C"/>
<path d="M184.418 280.051C194.811 280.051 204.414 276.589 212.143 270.595L148.701 207.166C142.496 215.07 139.157 224.844 139.229 234.891C139.098 259.806 159.357 280.058 184.411 280.058L184.418 280.051ZM373.158 234.745C373.158 224.352 369.696 214.764 363.695 207.035L300.252 270.456C308.158 276.654 317.931 279.99 327.977 279.919C352.899 280.051 373.158 259.799 373.158 234.752V234.745Z" fill="white"/>
<path d="M405.151 165.864L377.023 193.977C386.693 205.463 391.983 220.002 391.954 235.016C391.954 270.324 363.299 298.971 327.977 298.971C312.38 298.971 298.115 293.379 286.916 284.047L256.132 314.825L225.34 284.047C213.848 293.717 199.305 299.006 184.286 298.978C148.964 298.978 120.309 270.324 120.309 235.016C120.309 219.426 125.909 205.168 135.241 193.977L107.113 165.864C90.5914 193.047 81.8752 224.256 81.9202 256.066C81.9202 352.27 159.892 430.08 256 430.08C352.101 430.08 430.072 352.131 430.072 256.066C430.375 224.258 421.74 193.005 405.151 165.864Z" fill="white"/>
<path d="M382.088 135.885C365.854 118.81 346.314 105.22 324.658 95.9423C303.002 86.6646 279.684 81.8936 256.124 81.9201C206.544 81.9201 161.897 102.707 130.168 135.885C125.87 140.451 121.78 145.209 117.909 150.142L256 288.183L394.084 150.011C390.461 144.995 386.45 140.272 382.088 135.885ZM256.124 104.573C296.922 104.573 334.776 120.295 363.168 148.942L256.124 255.934L149.096 148.942C177.619 120.295 215.342 104.573 256.132 104.573H256.124Z" fill="white"/>
</svg>
